public/icons/plus-circle-outline-sm.svg

<svg role="img" width="24" height="24" viewBox="0 0 24 24" fill="none" xmlns="http://www.w3.org/2000/svg">
<circle cx="12" cy="12" r="10.5" stroke="currentColor"/>
<path fill-rule="evenodd" clip-rule="evenodd" d="M12.5 6.5C12.5 6.22386 12.2761 6 12 6C11.7239 6 11.5 6.22386 11.5 6.5V11.5H6.5C6.22386 11.5 6 11.7239 6 12C6 12.2761 6.22386 12.5 6.5 12.5H11.5V17.5C11.5 17.7761 11.7239 18 12 18C12.2761 18 12.5 17.7761 12.5 17.5V12.5H17.5C17.7761 12.5 18 12.2761 18 12C18 11.7239 17.7761 11.5 17.5 11.5H12.5V6.5Z" fill="currentColor"/>
</svg>

<svg role="img" xmlns="http://www.w3.org/2000/svg" width="24" height="24" fill="none" viewBox="0 0 24 24">
  <circle cx="12" cy="12" r="10.5" stroke="currentColor"/>
  <path fill="currentColor" fill-rule="evenodd" d="M12.5 6.5a.5.5 0 0 0-1 0v5h-5a.5.5 0 0 0 0 1h5v5a.5.5 0 0 0 1 0v-5h5a.5.5 0 0 0 0-1h-5v-5Z"/>
</svg>
